public/svg/gallery.svg

<svg width="106" height="82" viewBox="0 0 106 82" fill="none" xmlns="http://www.w3.org/2000/svg">
<rect x="23.5986" y="14.0442" width="5.79883" height="9.95746" rx="2.89941" fill="#704FE6"/>
<rect x="24.0986" y="14.5442" width="4.79883" height="8.95746" rx="2.39941" fill="#704FE6" stroke="#373737"/>
<rect x="6.86719" y="19.4094" width="92.2656" height="62.5908" rx="8" fill="#F8F8F8"/>
<path fill-rule="evenodd" clip-rule="evenodd" d="M8.03614 78.1656C9.44136 80.4653 11.9752 82.0002 14.8675 82.0002H91.1332C95.5515 82.0002 99.1332 78.4185 99.1332 74.0002V27.4094C99.1332 24.5421 97.6247 22.0271 95.3581 20.6148C96.0995 21.828 96.5267 23.2542 96.5267 24.7801V71.3709C96.5267 75.7892 92.945 79.3709 88.5267 79.3709H12.2611C10.7101 79.3709 9.2622 78.9296 8.03614 78.1656Z" fill="#EBE8F1"/>
<rect x="7.36719" y="19.9094" width="91.2656" height="61.5908" rx="7.5" stroke="#373737"/>
<rect x="79.8252" y="8.90149" width="1.95072" height="6.41527" rx="0.97536" transform="rotate(-134.666 79.8252 8.90149)" fill="#373737"/>
<rect width="1.95072" height="6.41527" rx="0.97536" transform="matrix(0.702969 -0.71122 -0.71122 -0.702969 68.708 8.90149)" fill="#373737"/>
<rect x="73.291" y="2.21753" width="1.95072" height="6.41527" rx="0.97536" fill="#373737"/>
<path d="M64.9059 14.0576L61.8477 19.4094H86.6855L83.231 13.9136C82.499 12.749 81.2199 12.0422 79.8444 12.0422H68.3789C66.9435 12.0422 65.6181 12.8114 64.9059 14.0576Z" fill="#704FE6"/>
<path d="M64.9059 14.0576L61.8477 19.4094H86.6855L83.231 13.9136C82.499 12.749 81.2199 12.0422 79.8444 12.0422H68.3789C66.9435 12.0422 65.6181 12.8114 64.9059 14.0576Z" fill="#704FE6"/>
<path fill-rule="evenodd" clip-rule="evenodd" d="M64.5139 74.2734C76.7592 74.2734 86.686 64.3466 86.686 52.1013C86.686 39.856 76.7592 29.9292 64.5139 29.9292C52.2686 29.9292 42.3418 39.856 42.3418 52.1013C42.3418 64.3466 52.2686 74.2734 64.5139 74.2734ZM64.5133 67.7467C73.0239 67.7467 79.9231 60.8475 79.9231 52.3369C79.9231 43.8264 73.0239 36.9272 64.5133 36.9272C56.0028 36.9272 49.1036 43.8264 49.1036 52.3369C49.1036 60.8475 56.0028 67.7467 64.5133 67.7467Z" fill="#DEC8FE"/>
<path fill-rule="evenodd" clip-rule="evenodd" d="M77.023 61.9587C74.1065 65.6547 69.5872 68.0271 64.5137 68.0271C55.7181 68.0271 48.5879 60.8969 48.5879 52.1013C48.5879 51.3523 48.6396 50.6154 48.7396 49.894C49.1377 50.075 49.58 50.1759 50.0458 50.1759H57.1241C58.8683 50.1759 60.2822 48.762 60.2822 47.0178C60.2822 45.2737 58.8683 43.8597 57.1241 43.8597H50.8835C53.6746 39.2536 58.7347 36.1755 64.5137 36.1755C73.3092 36.1755 80.4395 43.3058 80.4395 52.1013C80.4395 53.3185 80.3029 54.5037 80.0443 55.6426H73.2372C71.493 55.6426 70.0791 57.0565 70.0791 58.8007C70.0791 60.5448 71.493 61.9587 73.2372 61.9587H77.023Z" fill="#EBE8F1"/>
<circle cx="64.5137" cy="52.1013" r="15.4258" stroke="#373737"/>
<rect x="16.6592" y="34.327" width="12.7383" height="2.60016" rx="1.30008" fill="#704FE6"/>
<path fill-rule="evenodd" clip-rule="evenodd" d="M64.5139 74.2734C76.7592 74.2734 86.686 64.3466 86.686 52.1013C86.686 39.856 76.7592 29.9292 64.5139 29.9292C52.2686 29.9292 42.3418 39.856 42.3418 52.1013C42.3418 64.3466 52.2686 74.2734 64.5139 74.2734ZM65.5067 73.8961C76.5143 73.8961 85.4378 64.9726 85.4378 53.965C85.4378 42.9573 76.5143 34.0338 65.5067 34.0338C54.499 34.0338 45.5755 42.9573 45.5755 53.965C45.5755 64.9726 54.499 73.8961 65.5067 73.8961Z" fill="#F2EAFE"/>
<circle cx="64.5139" cy="52.1013" r="21.6721" stroke="#373737"/>
<path fill-rule="evenodd" clip-rule="evenodd" d="M62.0938 19.8251L65.152 14.4733C65.8642 13.227 67.1896 12.4579 68.625 12.4579H80.0905C81.466 12.4579 82.7451 13.1646 83.4771 14.3292L84.0537 15.2465C83.3119 14.146 82.0697 13.4825 80.737 13.4825H69.2714C67.836 13.4825 66.5107 14.2517 65.7985 15.4979L63.3258 19.8251H62.0938Z" fill="#DEC8FE"/>
<path d="M64.9059 14.0576L61.8477 19.4094H86.6855L83.231 13.9136C82.499 12.749 81.2199 12.0422 79.8444 12.0422H68.3789C66.9435 12.0422 65.6181 12.8114 64.9059 14.0576Z" stroke="#373737"/>
</svg>

<svg width="106" height="82" viewBox="0 0 106 82" fill="none" xmlns="http://www.w3.org/2000/svg"><rect x="23.599" y="14.044" width="5.799" height="9.957" rx="2.899" fill="#704FE6"/><rect x="24.099" y="14.544" width="4.799" height="8.957" rx="2.399" fill="#704FE6" stroke="#373737"/><rect x="6.867" y="19.409" width="92.266" height="62.591" rx="8" fill="#F8F8F8"/><path fill-rule="evenodd" clip-rule="evenodd" d="M8.036 78.166A7.995 7.995 0 0 0 14.868 82h76.265a8 8 0 0 0 8-8V27.41a7.995 7.995 0 0 0-3.775-6.795 7.962 7.962 0 0 1 1.169 4.165v46.59a8 8 0 0 1-8 8H12.26a7.962 7.962 0 0 1-4.225-1.204Z" fill="#EBE8F1"/><rect x="7.367" y="19.909" width="91.266" height="61.591" rx="7.5" stroke="#373737"/><rect x="79.825" y="8.901" width="1.951" height="6.415" rx=".975" transform="rotate(-134.666 79.825 8.901)" fill="#373737"/><rect width="1.951" height="6.415" rx=".975" transform="scale(1 -1) rotate(45.334 45.011 77.808)" fill="#373737"/><rect x="73.291" y="2.218" width="1.951" height="6.415" rx=".975" fill="#373737"/><path d="m64.906 14.058-3.058 5.351h24.838l-3.455-5.495a4 4 0 0 0-3.387-1.872H68.38a4 4 0 0 0-3.473 2.016Z" fill="#704FE6"/><path d="m64.906 14.058-3.058 5.351h24.838l-3.455-5.495a4 4 0 0 0-3.387-1.872H68.38a4 4 0 0 0-3.473 2.016Z" fill="#704FE6"/><path fill-rule="evenodd" clip-rule="evenodd" d="M64.514 74.273c12.245 0 22.172-9.926 22.172-22.172 0-12.245-9.927-22.172-22.172-22.172-12.245 0-22.172 9.927-22.172 22.172 0 12.246 9.927 22.172 22.172 22.172Zm0-6.526c8.51 0 15.41-6.9 15.41-15.41s-6.9-15.41-15.41-15.41c-8.511 0-15.41 6.9-15.41 15.41s6.899 15.41 15.41 15.41Z" fill="#DEC8FE"/><path fill-rule="evenodd" clip-rule="evenodd" d="M77.023 61.959a15.897 15.897 0 0 1-12.51 6.068c-8.795 0-15.925-7.13-15.925-15.926 0-.749.052-1.486.152-2.207.398.181.84.282 1.306.282h7.078a3.158 3.158 0 1 0 0-6.316h-6.24c2.79-4.606 7.85-7.684 13.63-7.684 8.795 0 15.925 7.13 15.925 15.925 0 1.218-.136 2.403-.395 3.542h-6.807a3.158 3.158 0 1 0 0 6.316h3.786Z" fill="#EBE8F1"/><circle cx="64.514" cy="52.101" r="15.426" stroke="#373737"/><rect x="16.659" y="34.327" width="12.738" height="2.6" rx="1.3" fill="#704FE6"/><path fill-rule="evenodd" clip-rule="evenodd" d="M64.514 74.273c12.245 0 22.172-9.926 22.172-22.172 0-12.245-9.927-22.172-22.172-22.172-12.245 0-22.172 9.927-22.172 22.172 0 12.246 9.927 22.172 22.172 22.172Zm.993-.377c11.007 0 19.93-8.923 19.93-19.931 0-11.008-8.923-19.931-19.93-19.931-11.008 0-19.932 8.923-19.932 19.931 0 11.008 8.924 19.931 19.932 19.931Z" fill="#F2EAFE"/><circle cx="64.514" cy="52.101" r="21.672" stroke="#373737"/><path fill-rule="evenodd" clip-rule="evenodd" d="m62.094 19.825 3.058-5.352a4 4 0 0 1 3.473-2.015h11.466a4 4 0 0 1 3.386 1.871l.577.917a4 4 0 0 0-3.317-1.764H69.271a4 4 0 0 0-3.472 2.016l-2.473 4.327h-1.232Z" fill="#DEC8FE"/><path d="m64.906 14.058-3.058 5.351h24.838l-3.455-5.495a4 4 0 0 0-3.387-1.872H68.38a4 4 0 0 0-3.473 2.016Z" stroke="#373737"/></svg>
